X:134
T:Lannigan's Ball #2
C:Joe Buchanan's Scottish Tome - Page 254.3
I:254 3
Z:Carl Allison
R:Jig
L:1/8
M:6/8
K:G
|: F | "Em"EFE G2 A | "Em"B2 A "A7"B^cd | "D"DED F2 G | "D"ABA AFD |
"Em"EFE G2 A | "Em"B2 A B^cd | "Em"e2 B "Am"c2 A | "Em"BGE E2 :|
|: "Em"e2 f "A7"g2 e | "D"fae fe^d | "Em"e2 f "A7"g2 e | "Bm"fdB B3 |
"Em"e2 f "A7"g2 e | "D"fae fe^d | "Em"e2 B "B7"c2 A | "Em"BGE E2 :|

